X:8808
T:L'Orientale - bourree
C: Mick Baudimant
Z:abc transcription Simon Wascher
N:please mail errors to: simon.wascher@chello.at
M:2/4
L:1/8
K:Dm
A3/2A/2 AB|A/2B/2A/2G/2 AB|cd cB|AE A2|
A3/2A/2 AB|A/2B/2A/2G/2 AB|cd cB|A4:|
|:A3/2A/2 AB|A/2B/2A/2G/2 AB|G3/2A/2 G^F|G/2A/2G/2^F/2 D2|
A3/2A/2 AB|A/2B/2A/2G/2 AB|G3/2A/2 G^F|G4:|


